X:1
T:the Bag of Potatoes
T:the Bag of Spuds
M:4/4
L:1/8
S:session tape Augusta 2000, James kelly, Tony Smith, Mick O'Connor
D:Festy Conlan, whistle  and Tim Lyons on accordion on the Topic LP The Breeze from Erin.
Z:Steve Bennett <Herpsc@AOL.COM> irtrad-l 2000-10-08
R:reel
K:G
|: A2eA A2eA | ABcd ecdB | G2BG AGBG | GB (3BBB GBdB \
|  A2eA A2eA | ABcd ecdB | ABcd efge | dBGA BAGB :|\
|: a2ea ageg | agbg agef | gedc BGBd | gfga bgeg \
|  a2ea ageg | agbg ageg | dBde gage | dBGB BAA2 :|
